pix_core/t/copy.svg

<svg preserveAspectRatio="xMinYMid meet" viewBox="0 0 512 512" xmlns="http://www.w3.org/2000/svg"><path d="m288 448h-224v-224h64v-64h-64c-35.3 0-64 28.7-64 64v224c0 35.3 28.7 64 64 64h224c35.3 0 64-28.7 64-64v-64h-64zm-64-96h224c35.3 0 64-28.7 64-64v-224c0-35.3-28.7-64-64-64h-224c-35.3 0-64 28.7-64 64v224c0 35.3 28.7 64 64 64z" fill="#fff"/></svg>

<svg xmlns="http://www.w3.org/2000/svg" viewBox="0 0 512 512" preserveAspectRatio="xMinYMid meet"><!--!Font Awesome Free 6.5.2 by @fontawesome - https://fontawesome.com License - https://fontawesome.com/license/free Copyright 2024 Fonticons, Inc.--><path fill="#fff" d="M288 448H64V224h64V160H64c-35.3 0-64 28.7-64 64V448c0 35.3 28.7 64 64 64H288c35.3 0 64-28.7 64-64V384H288v64zm-64-96H448c35.3 0 64-28.7 64-64V64c0-35.3-28.7-64-64-64H224c-35.3 0-64 28.7-64 64V288c0 35.3 28.7 64 64 64z"/></svg>
